src/assets/cargo-ship.svg

<svg height="480pt" viewBox="0 -96 480.00375 480" width="480pt" xmlns="http://www.w3.org/2000/svg"><path d="m472 272c-8.898438.230469-17.660156-2.210938-25.160156-7.007812-20.277344-11.988282-45.472656-11.988282-65.75 0-15.460938 9.339843-34.824219 9.339843-50.28125 0-20.273438-11.992188-45.472656-11.992188-65.746094 0-15.453125 9.339843-34.808594 9.339843-50.261719 0-9.855469-6.113282-21.277343-9.238282-32.871093-8.992188-11.589844-.242188-23 2.882812-32.851563 8.992188-7.484375 4.800781-16.238281 7.242187-25.125 7.007812-8.886719.230469-17.636719-2.207031-25.121094-7-9.851562-6.117188-21.265625-9.242188-32.855469-9-11.589843-.242188-23 2.882812-32.847656 8.992188-7.484375 4.800781-16.238281 7.242187-25.128906 7.007812-4.417969 0-8 3.582031-8 8 0 4.421875 3.582031 8 8 8 11.59375.246094 23.007812-2.878906 32.855469-9 7.484375-4.789062 16.234375-7.226562 25.121093-7 8.886719-.230469 17.640626 2.210938 25.128907 7.011719 9.847656 6.109375 21.257812 9.234375 32.847656 8.988281 11.589844.242188 23-2.886719 32.847656-9 7.484375-4.792969 16.238281-7.234375 25.128907-7 8.890624-.226562 17.644531 2.214844 25.132812 7.011719 20.273438 11.988281 45.464844 11.988281 65.738281 0 15.453125-9.34375 34.816407-9.34375 50.269531 0 20.273438 11.988281 45.464844 11.988281 65.738282 0 15.472656-9.34375 34.847656-9.34375 50.320312 0 9.855469 6.109375 21.273438 9.234375 32.871094 8.988281 4.417969 0 8-3.578125 8-8 0-4.417969-3.582031-8-8-8zm0 0"/><path d="m0 248c0 4.421875 3.582031 8 8 8 11.574219.261719 22.976562-2.863281 32.800781-8.988281 7.515625-4.792969 16.289063-7.234375 25.199219-7.011719 8.929688-.207031 17.714844 2.257812 25.230469 7.082031 9.808593 6.0625 21.160156 9.160157 32.691406 8.917969 11.613281.238281 23.046875-2.890625 32.925781-9.007812 7.460938-4.804688 16.199219-7.242188 25.074219-6.992188 8.953125-.21875 17.769531 2.25 25.308594 7.082031 20.253906 11.917969 45.382812 11.882813 65.601562-.089843 7.464844-4.808594 16.210938-7.246094 25.089844-6.992188 8.953125-.21875 17.769531 2.25 25.308594 7.082031 20.25 11.925781 45.378906 11.898438 65.601562-.070312 7.507813-4.785157 16.269531-7.226563 25.167969-7.011719 1.734375 0 3.335938.066406 4.953125.21875 7.167969.601562 14.082031 2.933594 20.152344 6.800781 9.867187 6.109375 21.292969 9.230469 32.894531 8.980469 4.417969 0 8-3.578125 8-8 0-4.417969-3.582031-8-8-8-8.902344.238281-17.667969-2.199219-25.167969-7-4.808593-2.835938-9.9375-5.089844-15.28125-6.710938l47.601563-94.695312c1.246094-2.480469 1.117187-5.429688-.339844-7.792969s-4.035156-3.800781-6.8125-3.800781h-40v-112c0-4.417969-3.582031-8-8-8h-288c-4.417969 0-8 3.582031-8 8v136h-16v-120c0-4.417969-3.582031-8-8-8h-64c-3.949219.003906-7.304688 2.882812-7.902344 6.785156l-14.960937 97.214844h-9.136719c-4.417969 0-8 3.582031-8 8v72c0 1.453125.394531 2.878906 1.144531 4.121094l20.457031 34.097656c-4.421874 1.265625-9.003906 1.867188-13.601562 1.78125-4.417969 0-8 3.582031-8 8zm376-128c-1.730469 0-3.414062.5625-4.800781 1.601562l-29.863281 22.398438h-5.335938v-32h80v8zm-136 24v-32h80v32zm-96-80h80v32h-80zm272 32h-80v-32h80zm-96 0h-80v-32h80zm96-48h-80v-32h80zm-96 0h-80v-32h80zm-176-32h80v32h-80zm0 96h80v32h-80zm-97.136719-80h49.136719v100.691406l-10.34375-10.34375c-1.5-1.503906-3.535156-2.34375-5.65625-2.347656h-46.671875zm-30.863281 104h60.6875l21.65625 21.65625c1.5 1.503906 3.535156 2.34375 5.65625 2.34375h240c1.730469 0 3.414062-.558594 4.800781-1.597656l29.863281-22.402344h80.359376l-44.246094 88c-.273438 0-.503906 0-.800782 0-11.601562-.234375-23.023437 2.886719-32.886718 8.992188-15.503906 9.367187-34.925782 9.339843-50.402344-.070313-20.246094-11.925781-45.378906-11.898437-65.597656.070313-15.503906 9.367187-34.925782 9.339843-50.402344-.070313-9.832031-6.070313-21.214844-9.167969-32.765625-8.921875-11.578125-.261719-22.980469 2.863281-32.800781 8.992188-7.519532 4.789062-16.292969 7.230468-25.199219 7.007812-8.929687.210938-17.710937-2.253906-25.226563-7.078125-9.8125-6.0625-21.164062-9.160156-32.695312-8.921875-1.953125 0-3.769531.082031-5.511719.203125-.585937.039063-1.121093.109375-1.6875.167969-1.113281.109375-2.214843.222656-3.257812.375-.613281.097656-1.191407.199218-1.78125.3125-.914063.160156-1.800781.328125-2.65625.527344-.570313.128906-1.128907.273437-1.671875.414062-.800782.210938-1.601563.441406-2.402344.683594-.488281.148437-.984375.300781-1.457031.460937-.796875.273438-1.542969.5625-2.277344.855469-.386719.152344-.800781.296875-1.160156.457031-.890625.375-1.746094.761719-2.578125 1.160157l-.542969.25c-1 .488281-1.976563.984374-2.910156 1.480468l-20.105469-33.5625zm0 0"/><path d="m72 40h-8c-4.417969 0-8 3.582031-8 8 0 4.421875 3.582031 8 8 8h8c4.417969 0 8-3.578125 8-8 0-4.417969-3.582031-8-8-8zm0 0"/><path d="m72 192h8c4.417969 0 8-3.578125 8-8 0-4.417969-3.582031-8-8-8h-8c-4.417969 0-8 3.582031-8 8 0 4.421875 3.582031 8 8 8zm0 0"/><path d="m112 192h8c4.417969 0 8-3.578125 8-8 0-4.417969-3.582031-8-8-8h-8c-4.417969 0-8 3.582031-8 8 0 4.421875 3.582031 8 8 8zm0 0"/><path d="m152 192h8c4.417969 0 8-3.578125 8-8 0-4.417969-3.582031-8-8-8h-8c-4.417969 0-8 3.582031-8 8 0 4.421875 3.582031 8 8 8zm0 0"/><path d="m192 192h8c4.417969 0 8-3.578125 8-8 0-4.417969-3.582031-8-8-8h-8c-4.417969 0-8 3.582031-8 8 0 4.421875 3.582031 8 8 8zm0 0"/><path d="m232 192h8c4.417969 0 8-3.578125 8-8 0-4.417969-3.582031-8-8-8h-8c-4.417969 0-8 3.582031-8 8 0 4.421875 3.582031 8 8 8zm0 0"/><path d="m272 192h8c4.417969 0 8-3.578125 8-8 0-4.417969-3.582031-8-8-8h-8c-4.417969 0-8 3.582031-8 8 0 4.421875 3.582031 8 8 8zm0 0"/><path d="m312 192h8c4.417969 0 8-3.578125 8-8 0-4.417969-3.582031-8-8-8h-8c-4.417969 0-8 3.582031-8 8 0 4.421875 3.582031 8 8 8zm0 0"/><path d="m352 192h8c4.417969 0 8-3.578125 8-8 0-4.417969-3.582031-8-8-8h-8c-4.417969 0-8 3.582031-8 8 0 4.421875 3.582031 8 8 8zm0 0"/><path d="m392 192h8c4.417969 0 8-3.578125 8-8 0-4.417969-3.582031-8-8-8h-8c-4.417969 0-8 3.582031-8 8 0 4.421875 3.582031 8 8 8zm0 0"/></svg>

<svg xmlns="http://www.w3.org/2000/svg" width="480.004" height="288.013" viewBox="0 0 480.004 288.013">
  <g id="cargo-ship" transform="translate(0)">
    <path id="Path_4" data-name="Path 4" d="M472,272a44.553,44.553,0,0,1-25.16-7.008,64.6,64.6,0,0,0-65.75,0,48.618,48.618,0,0,1-50.281,0,64.572,64.572,0,0,0-65.746,0,48.582,48.582,0,0,1-50.262,0A59.956,59.956,0,0,0,181.93,256a59.957,59.957,0,0,0-32.852,8.992A44.37,44.37,0,0,1,123.953,272a44.443,44.443,0,0,1-25.121-7,59.911,59.911,0,0,0-32.855-9,59.935,59.935,0,0,0-32.848,8.992A44.374,44.374,0,0,1,8,272a8,8,0,0,0,0,16,59.828,59.828,0,0,0,32.855-9,44.5,44.5,0,0,1,25.121-7,44.425,44.425,0,0,1,25.129,7.012A59.9,59.9,0,0,0,123.953,288a59.91,59.91,0,0,0,32.848-9,44.428,44.428,0,0,1,25.129-7,44.491,44.491,0,0,1,25.133,7.012,64.575,64.575,0,0,0,65.738,0,48.579,48.579,0,0,1,50.27,0,64.575,64.575,0,0,0,65.738,0,48.67,48.67,0,0,1,50.32,0A59.977,59.977,0,0,0,472,288a8,8,0,0,0,0-16Zm0,0" fill="#ef4937"/>
    <path id="Path_5" data-name="Path 5" d="M0,248a8,8,0,0,0,8,8,59.465,59.465,0,0,0,32.8-8.988A44.783,44.783,0,0,1,66,240a44.781,44.781,0,0,1,25.23,7.082A59.788,59.788,0,0,0,123.922,256a60.2,60.2,0,0,0,32.926-9.008A44.017,44.017,0,0,1,181.922,240a44.878,44.878,0,0,1,25.309,7.082,64.525,64.525,0,0,0,65.6-.09A44.006,44.006,0,0,1,297.922,240a44.878,44.878,0,0,1,25.309,7.082,64.516,64.516,0,0,0,65.6-.07A44.815,44.815,0,0,1,414,240c1.734,0,3.336.066,4.953.219a44.414,44.414,0,0,1,20.152,6.8A60.033,60.033,0,0,0,472,256a8,8,0,0,0,0-16,44.471,44.471,0,0,1-25.168-7,70.193,70.193,0,0,0-15.281-6.711l47.6-94.7A8,8,0,0,0,472,120H432V8a8,8,0,0,0-8-8H136a8,8,0,0,0-8,8V144H112V24a8,8,0,0,0-8-8H40a8,8,0,0,0-7.9,6.785L17.137,120H8a8,8,0,0,0-8,8v72a7.973,7.973,0,0,0,1.145,4.121l20.457,34.1A46.277,46.277,0,0,1,8,240a8,8,0,0,0-8,8ZM376,120a8.006,8.006,0,0,0-4.8,1.6L341.336,144H336V112h80v8ZM240,144V112h80v32ZM144,64h80V96H144ZM416,96H336V64h80Zm-96,0H240V64h80Zm96-48H336V16h80Zm-96,0H240V16h80ZM144,16h80V48H144Zm0,96h80v32H144ZM46.863,32H96V132.691L85.656,122.347A8,8,0,0,0,80,120H33.328ZM16,136H76.688l21.656,21.656A7.985,7.985,0,0,0,104,160H344a8,8,0,0,0,4.8-1.6L378.664,136h80.359l-44.246,88h-.8a60.173,60.173,0,0,0-32.887,8.992,48.618,48.618,0,0,1-50.4-.07,64.509,64.509,0,0,0-65.6.07,48.618,48.618,0,0,1-50.4-.07A59.949,59.949,0,0,0,181.922,224a59.418,59.418,0,0,0-32.8,8.992,44.828,44.828,0,0,1-25.2,7.008A44.734,44.734,0,0,1,98.7,232.922,59.847,59.847,0,0,0,66,224c-1.953,0-3.77.082-5.512.2-.586.039-1.121.109-1.687.168-1.113.109-2.215.223-3.258.375-.613.1-1.191.2-1.781.313-.914.16-1.8.328-2.656.527-.57.129-1.129.273-1.672.414-.8.211-1.6.441-2.4.684-.488.148-.984.3-1.457.461-.8.273-1.543.563-2.277.855-.387.152-.8.3-1.16.457-.891.375-1.746.762-2.578,1.16l-.543.25c-1,.488-1.977.984-2.91,1.48L16,197.785Zm0,0" fill="#ef4937"/>
    <path id="Path_6" data-name="Path 6" d="M72,40H64a8,8,0,0,0,0,16h8a8,8,0,0,0,0-16Zm0,0" fill="#ef4937"/>
    <path id="Path_7" data-name="Path 7" d="M72,192h8a8,8,0,0,0,0-16H72a8,8,0,0,0,0,16Zm0,0" fill="#ef4937"/>
    <path id="Path_8" data-name="Path 8" d="M112,192h8a8,8,0,0,0,0-16h-8a8,8,0,0,0,0,16Zm0,0" fill="#ef4937"/>
    <path id="Path_9" data-name="Path 9" d="M152,192h8a8,8,0,0,0,0-16h-8a8,8,0,0,0,0,16Zm0,0" fill="#ef4937"/>
    <path id="Path_10" data-name="Path 10" d="M192,192h8a8,8,0,0,0,0-16h-8a8,8,0,0,0,0,16Zm0,0" fill="#ef4937"/>
    <path id="Path_11" data-name="Path 11" d="M232,192h8a8,8,0,0,0,0-16h-8a8,8,0,0,0,0,16Zm0,0" fill="#ef4937"/>
    <path id="Path_12" data-name="Path 12" d="M272,192h8a8,8,0,0,0,0-16h-8a8,8,0,0,0,0,16Zm0,0" fill="#ef4937"/>
    <path id="Path_13" data-name="Path 13" d="M312,192h8a8,8,0,0,0,0-16h-8a8,8,0,0,0,0,16Zm0,0" fill="#ef4937"/>
    <path id="Path_14" data-name="Path 14" d="M352,192h8a8,8,0,0,0,0-16h-8a8,8,0,0,0,0,16Zm0,0" fill="#ef4937"/>
    <path id="Path_15" data-name="Path 15" d="M392,192h8a8,8,0,0,0,0-16h-8a8,8,0,0,0,0,16Zm0,0" fill="#ef4937"/>
  </g>
</svg>
